www/assets/icons/comments_disabled.svg

<svg width="24" height="24" viewBox="0 0 24 24" xmlns="http://www.w3.org/2000/svg" fill='currentColor'><path d="M17.485 13.345H18.655V11.345H15.485L14.485 10.345H18.655V8.34497H12.485L11.485 7.34497H18.655V5.34497H9.48497L5.48497 1.34497H20.655C21.755 1.34497 22.655 2.24497 22.655 3.34497V18.515L17.485 13.345ZM2.75497 1.44497L1.34497 2.85497L2.65497 4.17497V15.345C2.65497 16.445 3.55497 17.345 4.65497 17.345H15.825L21.135 22.655L22.545 21.245L2.75497 1.44497ZM6.65497 8.34497H6.82497L8.82497 10.345H6.65497V8.34497ZM6.65497 13.345V11.345H9.82497L11.825 13.345H6.65497Z"/></svg>

<svg xmlns="http://www.w3.org/2000/svg" width="24" height="24" viewBox="0 0 24 24" fill='currentColor'><path d="M17.485 13.345h1.17v-2h-3.17l-1-1h4.17v-2h-6.17l-1-1h7.17v-2h-9.17l-4-4h15.17c1.1 0 2 .9 2 2v15.17zm-14.73-11.9-1.41 1.41 1.31 1.32v11.17c0 1.1.9 2 2 2h11.17l5.31 5.31 1.41-1.41zm3.9 6.9h.17l2 2h-2.17zm0 5v-2h3.17l2 2z"/></svg>
